!!!COM: Mozart, Wolfgang Amadeus
!!!OTL: String Quartet No. 2 in D Major
!!!OMD: Andante
!!!OMV: 2
!!!SCT1: K<sup>1</sup> 155
!!!SCA: Chronologisch-thematisches Verzeichnis sämtlicher Tonwerke Wolfgang Amade Mozarts (L. von Köchel; 1862, 2/1905, 3/1937, 1947)
!!!SCT2: K<sup>6</sup> 134a
!!!YOR: Breitkopf & Härtel Edition
!!!ENC: Edmund Correia, Jr.
!!!CDT: 1756/1/27/-1791/12/5/
!!!OCY: Österreich
!!!YEC: Copyright (c) 1994, 2000 Center for Computer Assisted Research in the Humanities
!!!YEM: Rights to all derivative editions reserved.
!!!YEM: Refer to licensing agreement for further details.
!!!YEN: United States of America
**kern	**dynam	**kern	**dynam	**kern	**dynam	**kern	**dynam
*I:Violoncello	*I:Violoncello	*I:Viola	*I:Viola	*I:Violino 2	*I:Violino 2	*I:Violino 1	*I:Violino 1
*>[A,A,B,B]	*	*>[A,A,B,B]	*	*>[A,A,B,B]	*	*>[A,A,B,B]	*
*>A	*	*>A	*	*>A	*	*>A	*
*clefF4	*	*clefC3	*	*clefG2	*	*clefG2	*
*k[f#c#g#]	*	*k[f#c#g#]	*	*k[f#c#g#]	*	*k[f#c#g#]	*
*A:	*	*A:	*	*A:	*	*A:	*
*M3/4	*	*M3/4	*	*M3/4	*	*M3/4	*
! Andante	!	! Andante	!	! Andante	!	! Andante	!
8AA/Lxx	f	[4e\xx	f	[4c#/xx	f	[4ee\xx	f
8AA/	.	.	.	.	.	.	.
8AA/	.	(16e\LL]	.	(16c#/LL]	.	(16ee\LL]	.
.	.	16d\	.	16B/	.	16dd\	.
8AA/	.	16c#\	.	16A/	.	16cc#\	.
.	.	16d\JJ	.	16B/JJ	.	16dd\JJ	.
8AA/	.	16e\LL	.	16c#/LL	.	16ee\LL	.
.	.	16f#\	.	16d/	.	16ff#\	.
8AA/J	.	16g#\	.	16B/	.	16gg#\	.
.	.	16a\JJ)	.	16c#/JJ)	.	16aa\JJ)	.
=2	=2	=2	=2	=2	=2	=2	=2
8r	.	(2a\	.	(2c#/	.	(2aa\	.
8E\L	.	.	.	.	.	.	.
8E\	.	.	.	.	.	.	.
8E\	.	.	.	.	.	.	.
8E\	.	8g#\)	.	8B/)	.	8gg#\)	.
8E\J	.	8r	.	8r	.	8r	.
=3	=3	=3	=3	=3	=3	=3	=3
8EE/L	.	[4d\	.	[4B/	.	[4dd\	.
8EE/	.	.	.	.	.	.	.
8EE/	.	(16d\LL]	.	(16B/LL]	.	(16dd\LL]	.
.	.	16c#\	.	16A/	.	16cc#\	.
8EE/	.	16B\	.	16G#/	.	16b\	.
.	.	16c#\JJ	.	16A/JJ	.	16cc#\JJ	.
8EE/	.	16d\LL	.	16B/LL	.	16dd\LL	.
.	.	16f#\	.	16d/	.	16ff#\	.
8EE/J	.	16e\	.	16c#/	.	16ee\	.
.	.	16d\JJ)	.	16B/JJ)	.	16dd\JJ)	.
=4	=4	=4	=4	=4	=4	=4	=4
8r	.	(2d\	.	(2B/	.	(2dd\	.
8AA/L	.	.	.	.	.	.	.
8AA/	.	.	.	.	.	.	.
8AA/	.	.	.	.	.	.	.
8AA/	.	8c#\)	.	8A/)	.	8cc#\)	.
8AA/J	.	8r	.	8r	.	8r	.
=5	=5	=5	=5	=5	=5	=5	=5
8D\L	.	8d\L	.	8f#/L	.	[4b\	.
8D\	.	8d\	.	8f#/	.	.	.
8D\	.	8d\	.	8f#/	.	(16b\LL]	.
.	.	.	.	.	.	16cc#\	.
8D\	.	8d\	.	8f#/	.	16dd\	.
.	.	.	.	.	.	16ee\JJ	.
8D\	.	8d\	.	8f#/	.	16ff#\LL	.
.	.	.	.	.	.	16gg#\	.
8D\J	.	8d\J	.	8f#/J	.	16aa\	.
.	.	.	.	.	.	16bb\JJ)	.
=6	=6	=6	=6	=6	=6	=6	=6
8E\L	.	8e\L	.	8B/L	.	(4aa\	.
8E\	.	8e\	.	8B/	.	.	.
8D\	.	8e\	.	8B/	.	4gg#\	.
8D\J	.	8e\	.	8B/	.	.	.
4C#/	.	8e\	.	8A/	.	4aa\)	.
.	.	8e\J	.	8A/J	.	.	.
=7	=7	=7	=7	=7	=7	=7	=7
2.r	.	2.r	.	(8B/L	.	(8dd\L	.
.	.	.	.	8A/	.	8cc#\	.
.	.	.	.	8d/	.	8ff#\	.
.	.	.	.	8c#/	.	8ee\	.
.	.	.	.	8B/	.	8dd\	.
.	.	.	.	8A/J)	.	8cc#\J)	.
=8	=8	=8	=8	=8	=8	=8	=8
!	!	!	!	! 16BP/	!	! 16ddP/	!
8r	.	4r	.	(8Ap/L	.	(8cc#p\L	.
8E\L	.	.	.	16G#/L	.	16b\L	.
.	.	.	.	16A/JJ)	.	16cc#\JJ)	.
8E\	.	8r	.	8G#/L	.	8b/ 8e/L	.
8E\J	.	8e/L	.	8G#/J	.	8b/ 8e/J	.
8E\	.	8B/	.	8G#/	.	8b/ 8e/	.
8r	.	8G#/J	.	8r	.	8r	.
=9	=9	=9	=9	=9	=9	=9	=9
(4G#\	.	4E/	.	8b'\	p	2.r	.
.	.	.	.	(16b\LL	.	.	.
.	.	.	.	16cc#\JJ)	.	.	.
4F#\	.	4r	.	8a'/	.	.	.
.	.	.	.	(16a/LL	.	.	.
.	.	.	.	16b/JJ)	.	.	.
4E\)	.	(4e\	p	8g#'/	.	.	.
.	.	.	.	8r	.	.	.
=10	=10	=10	=10	=10	=10	=10	=10
(4F#\	.	4d#\)	.	2.r	.	8aa'\	p
.	.	.	.	.	.	(16aa\LL	.
.	.	.	.	.	.	16bb\JJ)	.
4E\	.	4e\	.	.	.	8gg#'\	.
.	.	.	.	.	.	(16gg#\LL	.
.	.	.	.	.	.	16aa\JJ)	.
4D#\)	.	4B/	.	.	.	8ff#'\	.
.	.	.	.	.	.	8r	.
=11	=11	=11	=11	=11	=11	=11	=11
(4G#\	.	(4B/	.	(24b\LL	.	2.r	.
.	.	.	.	24dd#\	.	.	.
.	.	.	.	24ee\JJ	.	.	.
.	.	.	.	24gg#\LL	.	.	.
.	.	.	.	24bb\	.	.	.
.	.	.	.	24gg#\JJ	.	.	.
4F#\	.	4d#\	.	24aa\LL	.	.	.
.	.	.	.	24ff#\	.	.	.
.	.	.	.	24dd#\JJ	.	.	.
.	.	.	.	24b\LL	.	.	.
.	.	.	.	24cc#\	.	.	.
.	.	.	.	24a\JJ	.	.	.
4E\)	.	4e\)	.	8g#/)	.	.	.
.	.	.	.	8r	.	.	.
=12	=12	=12	=12	=12	=12	=12	=12
(4F#\	.	(4d#\	.	2.r	.	(24a\LL	.
.	.	.	.	.	.	24b\	.
.	.	.	.	.	.	24dd#\JJ	.
.	.	.	.	.	.	24ff#\LL	.
.	.	.	.	.	.	24aa\	.
.	.	.	.	.	.	24ff#\JJ	.
4E\	.	4e\	.	.	.	24gg#\LL	.
.	.	.	.	.	.	24ee\	.
.	.	.	.	.	.	24gg#\JJ	.
.	.	.	.	.	.	24bb\LL	.
.	.	.	.	.	.	24gg#\	.
.	.	.	.	.	.	24bb\JJ	.
4D#\)	.	4B/)	.	.	.	8ff#\)	.
.	.	.	.	.	.	8r	.
=13	=13	=13	=13	=13	=13	=13	=13
8E'\L	f	(16B/LL	f	(16e/LL	f	(16gg#\LL	f
.	.	16A/	.	16f#/	.	16aa\	.
8E'\J	.	16G#/	.	16g#/	.	16bb\	.
.	.	16A/JJ)	.	16f#/J	.	16aa\J	.
8E'\	.	4B/	.	8e/J)	.	8gg#\J)	.
8r	.	.	.	8dn'/L	p	8ff#'\L	p
4r	.	4r	.	8c#'/	.	8ee'\	.
.	.	.	.	8B'/J	.	8ddn'\J	.
=14	=14	=14	=14	=14	=14	=14	=14
8AA/L	.	(16c#\LL	.	(16A/LL	f	(16cc#\LL	f
.	.	16d#\	.	16B/	.	16dd#\	.
8AA/J	.	16e\	.	16c#/	.	16ee\	.
.	.	16d#\JJ)	.	16B/J	.	16dd#\J	.
8AA/	.	4c#\	.	8A/J)	.	8cc#\J)	.
8r	.	.	.	8g#'/L	p	8b'/L	p
4r	.	4r	.	8f#'/	.	8a'/	.
.	.	.	.	8e'/J	.	8g#'/J	.
=15	=15	=15	=15	=15	=15	=15	=15
2.BB/	.	(4A/	.	(4d#/	f	(4f#/	f
.	.	4F#/	.	4f#/)	.	4a/)	.
!	!	!	!	! 16g#P/	!	! 16bP/	!
.	.	4B/)	.	(8f#p/L	.	(8ap/L	.
.	.	.	.	16e/L	.	16g#/L	.
.	.	.	.	16d#/JJ)	.	16f#/JJ)	.
=16	=16	=16	=16	=16	=16	=16	=16
4E\	.	4B/	.	(16e/LL	.	(16g#/LL	.
.	.	.	.	16f#/	.	16a/	.
.	.	.	.	16g#/	.	16b/	.
.	.	.	.	16a/JJ)	.	16cc#/JJ)	.
4EE/	.	4E/	.	8g#/L	.	8b'\L	.
.	.	.	.	8g#/J	.	8b'\J	.
4E\	.	4e\	.	4g#t/	.	4bT\	.
=17	=17	=17	=17	=17	=17	=17	=17
4AA/xx	p	4E/xx	p	(16c#t/LL	p	(16cc#t\LL	p
.	.	.	.	16B#/	.	16b#\	.
.	.	.	.	16c#/	.	16cc#\	.
.	.	.	.	16d#/JJ)	.	16dd#\JJ)	.
4r	.	4r	.	(16eT/LL	.	(16eeT\LL	.
.	.	.	.	16d#/	.	16dd#\	.
.	.	.	.	16e/	.	16ee\	.
.	.	.	.	16e#/JJ)	.	16ee#\JJ)	.
4r	.	4r	.	(16f#t/LL	.	(16ff#t\LL	.
.	.	.	.	16e#/	.	16ee#\	.
.	.	.	.	16f#/	.	16ff#\	.
.	.	.	.	16g#/JJ)	.	16gg#\JJ)	.
=18	=18	=18	=18	=18	=18	=18	=18
2.r	.	2.r	.	(16aT/LL	.	(16aaT\LL	.
.	.	.	.	16g#/	.	16gg#\	.
.	.	.	.	16a/	.	16aa\	.
.	.	.	.	16b/JJ)	.	16bb\JJ)	.
.	.	.	.	(16cc#t\LL	.	(16ccc#t\LL	.
.	.	.	.	16b\	.	16bb\	.
.	.	.	.	16cc#\	.	16ccc#\	.
.	.	.	.	16dd#\JJ)	.	16ddd#\JJ)	.
.	.	.	.	8ee\	.	8eee\	.
.	.	.	.	8r	.	8r	.
=19	=19	=19	=19	=19	=19	=19	=19
4BB/	f	4.g#\	f	4.ee\ 4.b\	f	4.gg#\ 4.b\	f
4BB/	.	.	.	.	.	.	.
.	.	16f#\LL	.	16ff#\LL	.	16aa\LL	.
.	.	16g#\JJ	.	16gg#\JJ	.	16bb\JJ	.
!	!	!	!	! 16gg#P/	!	! 16bbP/	!
4BB/	.	(16d#\LL	.	(8ff#p\L	.	(8aap\L	.
.	.	16f#\	.	.	.	.	.
.	.	16g#\	.	16ee\L	.	16gg#\L	.
.	.	16a\JJ)	.	16dd#\JJ)	.	16ff#\JJ)	.
=20	=20	=20	=20	=20	=20	=20	=20
[2EE/	.	(2a\	.	(2dd#\	.	(2ff#\	.
8EE/]	.	8g#\)	.	8ee\)	.	8ee\)	.
8r	.	8r	.	8r	.	8r	.
=21:!!:	=21:!!:	=21:!!:	=21:!!:	=21:!!:	=21:!!:	=21:!!:	=21:!!:
*>B	*	*>B	*	*>B	*	*>B	*
2.r	.	2.r	.	2.r	.	8cc#\	p
.	.	.	.	.	.	(4cc#\	.
.	.	.	.	.	.	16ddnT\LL	.
.	.	.	.	.	.	32cc#\L	.
.	.	.	.	.	.	32dd\JJJ)	.
.	.	.	.	.	.	8ee'\L	.
.	.	.	.	.	.	8ff#'\J	.
=22	=22	=22	=22	=22	=22	=22	=22
4F#\	.	(4a#\	.	(4c#/	.	(4ee\	f
4BB/	.	4b\)	.	4B/)	.	8dd\L)	.
.	.	.	.	.	.	8cc#\	p
4r	.	4r	.	4r	.	8b\	.
.	.	.	.	.	.	8cc#\J	.
=23	=23	=23	=23	=23	=23	=23	=23
2.r	.	2.r	.	2.r	.	8b\	.
.	.	.	.	.	.	(4b\	.
.	.	.	.	.	.	16cc#t\LL	.
.	.	.	.	.	.	32b\L	.
.	.	.	.	.	.	32cc#\JJJ)	.
.	.	.	.	.	.	8dd'\L	.
.	.	.	.	.	.	8ee'\J	.
=24	=24	=24	=24	=24	=24	=24	=24
4E\	.	(4g#\	.	(4B/	.	(4dd\	f
4AA/	.	4an\)	.	4A/)	.	8cc#\L)	.
.	.	.	.	.	.	8b\	p
4r	.	4r	.	4r	.	8a\	.
.	.	.	.	.	.	8b\J	.
=25	=25	=25	=25	=25	=25	=25	=25
8A\L	.	8A/L	.	8e/L	.	4ccn\	f
8A\	.	8A/	.	8e/	.	.	.
!	!	!	!	!	!	! 16ddP/	!
8A\	.	8A/	.	8e/	.	8ccp\L	.
8A\	.	8A/	.	8e/	.	16b\L	.
.	.	.	.	.	.	16a\JJ	.
8A\	.	8A/	.	8cn/	.	8ee\L	.
8A\J	.	8A/J	.	8c/J	.	8ee\J	.
=26	=26	=26	=26	=26	=26	=26	=26
8Fn\L	.	8cn\L	.	8a/L	.	(8ee\L	.
8F\	.	8c\	.	8a/	.	8dd#\J)	.
8F\	.	8c\	.	8a/	.	[2dd#\	.
8F\	.	8c\	.	8a/	.	.	.
8F\	.	8c\	.	8a/	.	.	.
8F\J	.	8c\J	.	8a/J	.	.	.
=27	=27	=27	=27	=27	=27	=27	=27
4Fn\	.	4cn\	.	4a/	.	8dd#\L]	.
.	.	.	.	.	.	(8cccn\	p
4r	.	4r	.	8r	.	8bb\	.
.	.	.	.	(8a\L	p	8ccc\	.
4D#\	p	4f#\	p	8b\	.	8bb\	.
.	.	.	.	8ccn\J)	.	8aa\J)	.
=28	=28	=28	=28	=28	=28	=28	=28
!	!	!	!	! 16ccnP/	!	! 16aaP/	!
4E\	.	8r	.	8bp/L	.	8gg#p\L	.
.	.	8B/L	.	16a/L	.	16ff#\L	.
.	.	.	.	16g#/JJ	.	16ee\JJ	.
4E\	.	8B/	.	8g#/L	.	8ee\L	.
.	.	8B/J	.	8g#/J	.	8ee\J	.
4E\	.	8B/	.	8g#t/	.	8eeT\	.
.	.	8r	.	8r	.	8r	.
=29	=29	=29	=29	=29	=29	=29	=29
8Dn\L	f	8dn\L	f	8f#/L	f	[4b\	f
8D\	.	8d\	.	8f#/	.	.	.
8D\	.	8d\	.	8f#/	.	(16b\LL]	.
.	.	.	.	.	.	16cc#\	.
8D\	.	8d\	.	8f#/	.	16ddn\	.
.	.	.	.	.	.	16ee\JJ	.
8D\	.	8B\	.	8d/	.	16ff#\LL	.
.	.	.	.	.	.	16gg#\	.
8D\J	.	8B\J	.	8d/J	.	16aa\	.
.	.	.	.	.	.	16bb\JJ)	.
=30	=30	=30	=30	=30	=30	=30	=30
8E\L	.	8e\L	.	8c#/L	.	(4aa\	.
8E\	.	8e\	.	8c#/	.	.	.
8D\	.	8e\	.	8B/	.	4gg#\	.
8D\J	.	8e\	.	8B/	.	.	.
4C#/	.	8e\	.	(8A/	.	4aa\)	.
.	.	8e\J	.	8c#/J)	.	.	.
=31	=31	=31	=31	=31	=31	=31	=31
2.r	.	2.r	.	(8B/L	.	(8dd\L	.
.	.	.	.	8A/	.	8cc#\	.
.	.	.	.	8d/	.	8ff#\	.
.	.	.	.	8c#/	.	8ee\	.
.	.	.	.	8B/	.	8dd\	.
.	.	.	.	8A/J)	.	8cc#\J)	.
=32	=32	=32	=32	=32	=32	=32	=32
!	!	!	!	! 16BP/	!	! 16ddP/	!
8r	.	4r	.	8Ap/L	.	8cc#p\L	.
8E\L	.	.	.	16G#/L	.	16b\L	.
.	.	.	.	16A/JJ	.	16cc#\JJ	.
8E\	.	8r	.	8G#/L	.	8b/ 8e/L	.
8E\J	.	8E/L	.	8G#/J	.	8b/ 8e/J	.
8E\	.	8B/	.	8G#/	.	8b/ 8e/	.
8r	.	8d/J	.	8r	.	8r	.
=33	=33	=33	=33	=33	=33	=33	=33
(4c#\	p	4c#\	.	8e'/	p	2.r	.
.	.	.	.	(16e/LL	.	.	.
.	.	.	.	16f#/JJ)	.	.	.
4B\	.	4r	.	8d'/	.	.	.
.	.	.	.	(16d/LL	.	.	.
.	.	.	.	16e/JJ)	.	.	.
4A\)	.	(4a\	p	8c#'/	.	.	.
.	.	.	.	8r	.	.	.
=34	=34	=34	=34	=34	=34	=34	=34
(4B\	.	4g#\)	.	2.r	.	8dd'\	p
.	.	.	.	.	.	(16dd\LL	.
.	.	.	.	.	.	16ee\JJ)	.
4A\	.	4a\	.	.	.	8cc#'\	.
.	.	.	.	.	.	(16cc#\LL	.
.	.	.	.	.	.	16dd\JJ)	.
4G#\)	.	4e\	.	.	.	8b'\	.
.	.	.	.	.	.	8r	.
=35	=35	=35	=35	=35	=35	=35	=35
(4C#/	.	(4A/	.	(24ee\LL	.	2.r	.
.	.	.	.	24ff#\	.	.	.
.	.	.	.	24gg#\JJ	.	.	.
.	.	.	.	24aa\LL	.	.	.
.	.	.	.	24bb\	.	.	.
.	.	.	.	24ccc#\JJ)	.	.	.
4BB/	.	4G#/	.	(24ddd\LL	.	.	.
.	.	.	.	24bb\	.	.	.
.	.	.	.	24gg#\JJ	.	.	.
.	.	.	.	24ee\LL	.	.	.
.	.	.	.	24ff#\	.	.	.
.	.	.	.	24dd\JJ)	.	.	.
4AA/)	.	4A/)	.	8cc#'\	.	.	.
.	.	.	.	8r	.	.	.
=36	=36	=36	=36	=36	=36	=36	=36
(4BB/	.	(4G#/	.	2.r	.	(24ee\LL	.
.	.	.	.	.	.	24gg#\	.
.	.	.	.	.	.	24aa\JJ	.
.	.	.	.	.	.	24bb\LL	.
.	.	.	.	.	.	24ccc#\	.
.	.	.	.	.	.	24ddd\JJ	.
4AA/	.	4A/	.	.	.	24ccc#\LL)	.
.	.	.	.	.	.	(24gg#\	.
.	.	.	.	.	.	24aa\JJ)	.
.	.	.	.	.	.	(24dd#\LL	.
.	.	.	.	.	.	24ee\)	.
.	.	.	.	.	.	24cc#\JJ)	.
4GG#/)	.	4E/)	.	.	.	8b'\	.
.	.	.	.	.	.	8r	.
=37	=37	=37	=37	=37	=37	=37	=37
8AA/L	f	(16e\LL	f	(16c#/LL	f	(16a/LL	f
.	.	16d\	.	16d/	.	16b/	.
8AA/J	.	16c#\	.	16e/	.	16cc#/	.
.	.	16d\JJ)	.	16d/J	.	16b/J	.
8AA/	.	4e\	.	8c#/J)	.	8a/J)	.
8r	.	.	.	8e'/L	p	8ggn'\L	p
4r	.	4r	.	8d'/	.	8ff#'\	.
.	.	.	.	8c#'/J	.	8ee#'\J	.
=38	=38	=38	=38	=38	=38	=38	=38
8D'\L	.	(16A/LL	.	(16d/LL	f	(16ff#\LL	f
.	.	16G#/	.	16e/	.	16gg#\	.
8D'\J	.	16F#/	.	16f#/	.	16aa\	.
.	.	16G#/JJ)	.	16e/J	.	16gg#\J	.
8D\	.	4A/	.	8d/J)	.	8ff#\J)	.
8r	.	.	.	8c#'/L	p	8een'\L	p
4r	.	4r	.	8B'/	.	8dd'\	.
.	.	.	.	8A'/J	.	8cc#'\J	.
=39	=39	=39	=39	=39	=39	=39	=39
2.E\	.	2.E/	.	(4G#/	f	(4b\	f
.	.	.	.	4B/)	.	4dd\)	.
!	!	!	!	! 16c#P/	!	! 16eeP/	!
.	.	.	.	(8Bp/L	.	(8ddp\L	.
.	.	.	.	16A/L	.	16cc#\L	.
.	.	.	.	16G#/JJ)	.	16b\JJ)	.
=40	=40	=40	=40	=40	=40	=40	=40
4AA/	.	4E/	.	(16A/LL	.	(16cc#\LL	.
.	.	.	.	16B/	.	16dd\	.
.	.	.	.	16c#/	.	16ee\	.
.	.	.	.	16d/JJ)	.	16ff#\JJ)	.
4A\	.	2A/	.	8c#'/L	.	8ee'\L	.
.	.	.	.	8c#'/J	.	8ee'\J	.
4AA/	.	.	.	8c#t/	.	8eeT\	.
.	.	.	.	8r	.	8r	.
=41	=41	=41	=41	=41	=41	=41	=41
4D\xx	p	4F#/xx	p	(16BT/LL	p	(16bT\LL	p
.	.	.	.	16A#/	.	16a#\	.
.	.	.	.	16B/	.	16b\	.
.	.	.	.	16c#/JJ)	.	16cc#\JJ)	.
4r	.	4r	.	(16dT/LL	.	(16ddT\LL	.
.	.	.	.	16c#/	.	16cc#\	.
.	.	.	.	16d/	.	16dd\	.
.	.	.	.	16e#/JJ)	.	16ee#\JJ)	.
4r	.	4r	.	(16f#t/LL	.	(16ff#t\LL	.
.	.	.	.	16e#/	.	16ee#\	.
.	.	.	.	16f#/	.	16ff#\	.
.	.	.	.	16a#/JJ)	.	16aa#\JJ)	.
=42	=42	=42	=42	=42	=42	=42	=42
2.r	.	2.r	.	(16bT\LL	.	(16bbT\LL	.
.	.	.	.	16a#\	.	16aa#\	.
.	.	.	.	16b\	.	16bb\	.
.	.	.	.	16cc#\JJ)	.	16ccc#\JJ)	.
.	.	.	.	(16ddT\LL	.	(16dddT\LL	.
.	.	.	.	16cc#\	.	16ccc#\	.
.	.	.	.	16dd\	.	16ddd\	.
.	.	.	.	16ee\JJ)	.	16eee\JJ)	.
.	.	.	.	8ff#'\	.	8fff#'\	.
.	.	.	.	8r	.	8r	.
=43	=43	=43	=43	=43	=43	=43	=43
4E\xx	f	2.e\xx	f	4.an/ 4.e/	f	4.cc#/ 4.e/	f
4E\	.	.	.	.	.	.	.
.	.	.	.	16b\LL	.	16dd\LL	.
.	.	.	.	16cc#\JJ	.	16ee\JJ	.
!	!	!	!	! 16cc#P/	!	! 16eeP/	!
4E\	.	.	.	8bp/L	.	8ddp\L	.
.	.	.	.	16a/L	.	16cc#\L	.
.	.	.	.	16g#/JJ	.	16b\JJ	.
=44	=44	=44	=44	=44	=44	=44	=44
8AA/L	.	(2d\	.	(2g#/	.	(2b\	.
8AA/	.	.	.	.	.	.	.
8AA/	.	.	.	.	.	.	.
8AA/J	.	.	.	.	.	.	.
8AA/	.	8c#\)	.	8a/)	.	8cc#\)	.
8r	.	8r	.	8r	.	8r	.
=45	=45	=45	=45	=45	=45	=45	=45
[4C#/	.	[4e\	.	8A/L	.	[4ee\	.
.	.	.	.	8A/	.	.	.
(16C#/LL]	.	(16e\LL]	.	8A/	.	(16ee\LL]	.
16BB/	.	16d\	.	.	.	16dd\	.
16AA/	.	16c#\	.	8A/	.	16cc#\	.
16BB/JJ	.	16d\JJ	.	.	.	16dd\JJ	.
16C#/LL	.	16e\LL	.	8A/	.	16ee\LL	.
16D/	.	16f#\	.	.	.	16ff#\	.
16E/	.	16g#\	.	8A/J	.	16gg#\	.
16F#/JJ)	.	16a\JJ)	.	.	.	16aa\JJ)	.
=46	=46	=46	=46	=46	=46	=46	=46
8F#\L	.	8B/L	.	(2d#/	.	(2aa\	.
8F#\	.	8B/	.	.	.	.	.
8F#\	.	8B/	.	.	.	.	.
8F#\	.	8B/	.	.	.	.	.
8E\	.	8B/	.	8e/)	.	8gg#\)	.
8E\J	.	8B/J	.	8r	.	8r	.
=47	=47	=47	=47	=47	=47	=47	=47
8E\L	.	[4B/	.	[4g#/	.	[4dd\	.
8E\	.	.	.	.	.	.	.
8E\	.	(16B/LL]	.	(16g#/LL]	.	(16dd\LL]	.
.	.	16A/	.	16a/	.	16cc#\	.
8E\	.	16G#/	.	16b/	.	16b\	.
.	.	16A/JJ)	.	16a/JJ)	.	16cc#\JJ	.
8E\	.	8B'/L	.	8g#'/L	.	16dd\LL	.
.	.	.	.	.	.	16ff#\	.
8E\J	.	8B'/J	.	8g#'/J	.	16ee\	.
.	.	.	.	.	.	16dd\JJ)	.
=48	=48	=48	=48	=48	=48	=48	=48
8E#\L	.	(2B/	.	(2g#/	.	(2dd\	.
8E#\	.	.	.	.	.	.	.
8E#\	.	.	.	.	.	.	.
8E#\J	.	.	.	.	.	.	.
8F#\	.	8A/)	.	8a/)	.	8cc#\)	.
8r	.	8r	.	8r	.	8r	.
=49	=49	=49	=49	=49	=49	=49	=49
!	!	!	!	!	!	! 16eeP/	!
2.En\	p	(4E/	p	(4G#/	p	4ddp\	p
!	!	!	!	!	!	! 16cc#P/	!
.	.	4G#/	.	4B/	.	4bp\	.
!	!	!	!	!	!	! 16aP/	!
.	.	4B/)	.	4dn/)	.	4g#p/	.
=50	=50	=50	=50	=50	=50	=50	=50
[2AA/	.	(2G#/	.	(2d/	.	(2b\	.
8AA/]	.	8A/)	.	8c#/)	.	8a/)	.
8r	.	8r	.	8r	.	8r	.
==:|!	==:|!	==:|!	==:|!	==:|!	==:|!	==:|!	==:|!
*-	*-	*-	*-	*-	*-	*-	*-
!!!RWG: Appoggiaturas of spine 'Violino 1' need manual editing in measures: 8, 15, 19, 25, 28, 32, 39, 43, 49, 49, 49
!!!RWG: Appoggiaturas of spine 'Violino 2' need manual editing in measures: 8, 15, 19, 28, 32, 39, 43
!!!RWG: Key is interpreted using the Humdrum key tool.
!!!AFT: stage2
!!!END: 1994/02/08
!!!KEY: 2919921132
!!!EMD: Converted from MuseData to Humdrum Dec 16, 2000, by Andreas Kornstaedt using muse2kern.
!!!EMD: Manual editing by Craig Sapp, Nov 2001
